X: 21061
T: Juniper
R: jig
M: 6/8
K: Gmajor
M:12/8
|:d|gfg dBG EGc edc|Bdd GBB Acc dd/e/f|
[1 g2 g dBG EGc e2 c|B/c/dB cAF AGF G2:|
[2 gfg dBG E2 c edc|BdB cAF AGF GF||
|:=F|EGc edc edc g2 e|dBG DGB dGA BAG|
[1 FAA DAA FA/A/A [D2d2] A|GFG A^GA B^AB G2:|
[2 F2 A D2 A FGA [D2d2] e|fed cBA G/A/BA G2||

